images/6537.svg

<?xml version="1.0" encoding="UTF-8"?>
<svg xmlns="http://www.w3.org/2000/svg" xmlns:xlink="http://www.w3.org/1999/xlink" width="300pt" height="300pt" viewBox="0 0 300 300" version="1.1">
<defs>
<g>
<symbol overflow="visible" id="glyph0-0">
<path style="stroke:none;" d="M 0.453125 1.59375 L 0.453125 -6.34375 L 4.953125 -6.34375 L 4.953125 1.59375 Z M 0.953125 1.09375 L 4.453125 1.09375 L 4.453125 -5.84375 L 0.953125 -5.84375 Z M 0.953125 1.09375 "/>
</symbol>
<symbol overflow="visible" id="glyph0-1">
<path style="stroke:none;" d="M 3.546875 -5.953125 C 2.898438 -5.953125 2.382812 -5.710938 2 -5.234375 C 1.625 -4.753906 1.4375 -4.101562 1.4375 -3.28125 C 1.4375 -2.445312 1.625 -1.789062 2 -1.3125 C 2.382812 -0.832031 2.898438 -0.59375 3.546875 -0.59375 C 4.191406 -0.59375 4.703125 -0.832031 5.078125 -1.3125 C 5.453125 -1.789062 5.640625 -2.445312 5.640625 -3.28125 C 5.640625 -4.101562 5.453125 -4.753906 5.078125 -5.234375 C 4.703125 -5.710938 4.191406 -5.953125 3.546875 -5.953125 Z M 3.546875 -6.6875 C 4.460938 -6.6875 5.195312 -6.375 5.75 -5.75 C 6.300781 -5.132812 6.578125 -4.3125 6.578125 -3.28125 C 6.578125 -2.238281 6.300781 -1.410156 5.75 -0.796875 C 5.195312 -0.179688 4.460938 0.125 3.546875 0.125 C 2.617188 0.125 1.878906 -0.179688 1.328125 -0.796875 C 0.773438 -1.410156 0.5 -2.238281 0.5 -3.28125 C 0.5 -4.3125 0.773438 -5.132812 1.328125 -5.75 C 1.878906 -6.375 2.617188 -6.6875 3.546875 -6.6875 Z M 3.546875 -6.6875 "/>
</symbol>
<symbol overflow="visible" id="glyph0-2">
<path style="stroke:none;" d="M 1.765625 -5.828125 L 1.765625 -3.359375 L 2.890625 -3.359375 C 3.296875 -3.359375 3.613281 -3.46875 3.84375 -3.6875 C 4.070312 -3.90625 4.1875 -4.207031 4.1875 -4.59375 C 4.1875 -4.988281 4.070312 -5.289062 3.84375 -5.5 C 3.613281 -5.71875 3.296875 -5.828125 2.890625 -5.828125 Z M 0.890625 -6.5625 L 2.890625 -6.5625 C 3.617188 -6.5625 4.171875 -6.394531 4.546875 -6.0625 C 4.929688 -5.726562 5.125 -5.238281 5.125 -4.59375 C 5.125 -3.945312 4.929688 -3.457031 4.546875 -3.125 C 4.171875 -2.800781 3.617188 -2.640625 2.890625 -2.640625 L 1.765625 -2.640625 L 1.765625 0 L 0.890625 0 Z M 0.890625 -6.5625 "/>
</symbol>
</g>
</defs>
<g id="surface36873">
<rect x="0" y="0" width="300" height="300" style="fill:rgb(100%,100%,100%);fill-opacity:1;stroke:none;"/>
<path style="fill:none;stroke-width:1.2;stroke-linecap:butt;stroke-linejoin:miter;stroke:rgb(0%,0%,0%);stroke-opacity:1;stroke-miterlimit:10;" d="M 245.308594 181.851562 L 228.757812 194.914062 "/>
<path style="fill:none;stroke-width:1.2;stroke-linecap:butt;stroke-linejoin:miter;stroke:rgb(0%,0%,0%);stroke-opacity:1;stroke-miterlimit:10;" d="M 228.757812 194.914062 L 209.171875 187.113281 "/>
<path style="fill:none;stroke-width:1.2;stroke-linecap:butt;stroke-linejoin:miter;stroke:rgb(0%,0%,0%);stroke-opacity:1;stroke-miterlimit:10;" d="M 209.171875 187.113281 L 192.621094 200.179688 "/>
<path style="fill:none;stroke-width:1.2;stroke-linecap:butt;stroke-linejoin:miter;stroke:rgb(0%,0%,0%);stroke-opacity:1;stroke-miterlimit:10;" d="M 192.621094 200.179688 L 173.035156 192.378906 "/>
<path style="fill:none;stroke-width:1.2;stroke-linecap:butt;stroke-linejoin:miter;stroke:rgb(0%,0%,0%);stroke-opacity:1;stroke-miterlimit:10;" d="M 173.035156 192.378906 L 156.484375 205.441406 "/>
<path style="fill:none;stroke-width:1.2;stroke-linecap:butt;stroke-linejoin:miter;stroke:rgb(0%,0%,0%);stroke-opacity:1;stroke-miterlimit:10;" d="M 173.035156 192.378906 L 169.996094 171.515625 "/>
<path style="fill:none;stroke-width:1.2;stroke-linecap:butt;stroke-linejoin:miter;stroke:rgb(0%,0%,0%);stroke-opacity:1;stroke-miterlimit:10;" d="M 156.484375 205.441406 L 136.898438 197.640625 "/>
<path style="fill:none;stroke-width:1.2;stroke-linecap:butt;stroke-linejoin:miter;stroke:rgb(0%,0%,0%);stroke-opacity:1;stroke-miterlimit:10;" d="M 169.996094 171.515625 L 160.199219 167.613281 "/>
<path style="fill:none;stroke-width:1.2;stroke-linecap:butt;stroke-linejoin:miter;stroke:rgb(100%,0%,0%);stroke-opacity:1;stroke-miterlimit:10;" d="M 160.199219 167.613281 L 150.40625 163.714844 "/>
<path style="fill:none;stroke-width:1.2;stroke-linecap:butt;stroke-linejoin:miter;stroke:rgb(100%,0%,0%);stroke-opacity:1;stroke-miterlimit:10;" d="M 150.40625 163.714844 L 148.886719 153.28125 "/>
<path style="fill:none;stroke-width:1.2;stroke-linecap:butt;stroke-linejoin:miter;stroke:rgb(100%,50%,0%);stroke-opacity:1;stroke-miterlimit:10;" d="M 148.886719 153.28125 L 147.367188 142.851562 "/>
<path style=" stroke:none;fill-rule:nonzero;fill:rgb(100%,100%,100%);fill-opacity:1;" d="M 146.40625 158.214844 L 154.40625 158.214844 L 154.40625 169.214844 L 146.40625 169.214844 Z M 146.40625 158.214844 "/>
<g style="fill:rgb(100%,0%,0%);fill-opacity:1;">
  <use xlink:href="#glyph0-1" x="146.40625" y="166.87793"/>
</g>
<path style="fill:none;stroke-width:1.2;stroke-linecap:butt;stroke-linejoin:miter;stroke:rgb(100%,50%,0%);stroke-opacity:1;stroke-miterlimit:10;" d="M 149.824219 142.492188 L 148.304688 132.0625 "/>
<path style="fill:none;stroke-width:1.2;stroke-linecap:butt;stroke-linejoin:miter;stroke:rgb(100%,0%,0%);stroke-opacity:1;stroke-miterlimit:10;" d="M 148.304688 132.0625 L 146.785156 121.628906 "/>
<path style="fill:none;stroke-width:1.2;stroke-linecap:butt;stroke-linejoin:miter;stroke:rgb(100%,50%,0%);stroke-opacity:1;stroke-miterlimit:10;" d="M 144.914062 143.207031 L 143.394531 132.777344 "/>
<path style="fill:none;stroke-width:1.2;stroke-linecap:butt;stroke-linejoin:miter;stroke:rgb(100%,0%,0%);stroke-opacity:1;stroke-miterlimit:10;" d="M 143.394531 132.777344 L 141.875 122.34375 "/>
<path style="fill:none;stroke-width:1.2;stroke-linecap:butt;stroke-linejoin:miter;stroke:rgb(100%,50%,0%);stroke-opacity:1;stroke-miterlimit:10;" d="M 147.367188 142.851562 L 157.800781 141.332031 "/>
<path style="fill:none;stroke-width:1.2;stroke-linecap:butt;stroke-linejoin:miter;stroke:rgb(100%,0%,0%);stroke-opacity:1;stroke-miterlimit:10;" d="M 157.800781 141.332031 L 168.230469 139.8125 "/>
<path style="fill:none;stroke-width:1.2;stroke-linecap:butt;stroke-linejoin:miter;stroke:rgb(100%,50%,0%);stroke-opacity:1;stroke-miterlimit:10;" d="M 147.367188 142.851562 L 136.9375 144.371094 "/>
<path style="fill:none;stroke-width:1.2;stroke-linecap:butt;stroke-linejoin:miter;stroke:rgb(100%,0%,0%);stroke-opacity:1;stroke-miterlimit:10;" d="M 136.9375 144.371094 L 126.503906 145.890625 "/>
<path style=" stroke:none;fill-rule:nonzero;fill:rgb(100%,100%,100%);fill-opacity:1;" d="M 144.367188 137.351562 L 150.367188 137.351562 L 150.367188 148.351562 L 144.367188 148.351562 Z M 144.367188 137.351562 "/>
<g style="fill:rgb(100%,50%,0%);fill-opacity:1;">
  <use xlink:href="#glyph0-2" x="144.367188" y="146.014648"/>
</g>
<path style=" stroke:none;fill-rule:nonzero;fill:rgb(100%,100%,100%);fill-opacity:1;" d="M 140.328125 116.488281 L 148.328125 116.488281 L 148.328125 127.488281 L 140.328125 127.488281 Z M 140.328125 116.488281 "/>
<g style="fill:rgb(100%,0%,0%);fill-opacity:1;">
  <use xlink:href="#glyph0-1" x="140.328125" y="125.151367"/>
</g>
<path style="fill:none;stroke-width:1.2;stroke-linecap:butt;stroke-linejoin:miter;stroke:rgb(100%,0%,0%);stroke-opacity:1;stroke-miterlimit:10;" d="M 168.230469 139.8125 L 172.132812 130.019531 "/>
<path style="fill:none;stroke-width:1.2;stroke-linecap:butt;stroke-linejoin:miter;stroke:rgb(0%,0%,0%);stroke-opacity:1;stroke-miterlimit:10;" d="M 172.132812 130.019531 L 176.03125 120.222656 "/>
<path style=" stroke:none;fill-rule:nonzero;fill:rgb(100%,100%,100%);fill-opacity:1;" d="M 164.230469 134.3125 L 172.230469 134.3125 L 172.230469 145.3125 L 164.230469 145.3125 Z M 164.230469 134.3125 "/>
<g style="fill:rgb(100%,0%,0%);fill-opacity:1;">
  <use xlink:href="#glyph0-1" x="164.230469" y="142.975586"/>
</g>
<path style="fill:none;stroke-width:1.2;stroke-linecap:butt;stroke-linejoin:miter;stroke:rgb(0%,0%,0%);stroke-opacity:1;stroke-miterlimit:10;" d="M 176.03125 120.222656 L 196.894531 117.183594 "/>
<path style="fill:none;stroke-width:1.2;stroke-linecap:butt;stroke-linejoin:miter;stroke:rgb(0%,0%,0%);stroke-opacity:1;stroke-miterlimit:10;" d="M 196.894531 117.183594 L 204.695312 97.597656 "/>
<path style="fill:none;stroke-width:1.2;stroke-linecap:butt;stroke-linejoin:miter;stroke:rgb(0%,0%,0%);stroke-opacity:1;stroke-miterlimit:10;" d="M 196.894531 117.183594 L 209.960938 133.734375 "/>
<path style="fill:none;stroke-width:1.2;stroke-linecap:butt;stroke-linejoin:miter;stroke:rgb(0%,0%,0%);stroke-opacity:1;stroke-miterlimit:10;" d="M 204.695312 97.597656 L 225.558594 94.558594 "/>
<path style="fill:none;stroke-width:1.2;stroke-linecap:butt;stroke-linejoin:miter;stroke:rgb(0%,0%,0%);stroke-opacity:1;stroke-miterlimit:10;" d="M 209.960938 133.734375 L 230.824219 130.695312 "/>
<path style="fill:none;stroke-width:1.2;stroke-linecap:butt;stroke-linejoin:miter;stroke:rgb(0%,0%,0%);stroke-opacity:1;stroke-miterlimit:10;" d="M 230.824219 130.695312 L 243.886719 147.246094 "/>
<path style="fill:none;stroke-width:1.2;stroke-linecap:butt;stroke-linejoin:miter;stroke:rgb(0%,0%,0%);stroke-opacity:1;stroke-miterlimit:10;" d="M 243.886719 147.246094 L 264.75 144.207031 "/>
<path style="fill:none;stroke-width:1.2;stroke-linecap:butt;stroke-linejoin:miter;stroke:rgb(100%,0%,0%);stroke-opacity:1;stroke-miterlimit:10;" d="M 126.503906 145.890625 L 119.972656 137.613281 "/>
<path style="fill:none;stroke-width:1.2;stroke-linecap:butt;stroke-linejoin:miter;stroke:rgb(0%,0%,0%);stroke-opacity:1;stroke-miterlimit:10;" d="M 119.972656 137.613281 L 113.441406 129.339844 "/>
<path style=" stroke:none;fill-rule:nonzero;fill:rgb(100%,100%,100%);fill-opacity:1;" d="M 122.503906 140.390625 L 130.503906 140.390625 L 130.503906 151.390625 L 122.503906 151.390625 Z M 122.503906 140.390625 "/>
<g style="fill:rgb(100%,0%,0%);fill-opacity:1;">
  <use xlink:href="#glyph0-1" x="122.503906" y="149.053711"/>
</g>
<path style="fill:none;stroke-width:1.2;stroke-linecap:butt;stroke-linejoin:miter;stroke:rgb(0%,0%,0%);stroke-opacity:1;stroke-miterlimit:10;" d="M 113.441406 129.339844 L 92.578125 132.378906 "/>
<path style="fill:none;stroke-width:1.2;stroke-linecap:butt;stroke-linejoin:miter;stroke:rgb(0%,0%,0%);stroke-opacity:1;stroke-miterlimit:10;" d="M 92.578125 132.378906 L 79.515625 115.828125 "/>
<path style="fill:none;stroke-width:1.2;stroke-linecap:butt;stroke-linejoin:miter;stroke:rgb(0%,0%,0%);stroke-opacity:1;stroke-miterlimit:10;" d="M 92.578125 132.378906 L 84.777344 151.964844 "/>
<path style="fill:none;stroke-width:1.2;stroke-linecap:butt;stroke-linejoin:miter;stroke:rgb(0%,0%,0%);stroke-opacity:1;stroke-miterlimit:10;" d="M 79.515625 115.828125 L 58.652344 118.867188 "/>
<path style="fill:none;stroke-width:1.2;stroke-linecap:butt;stroke-linejoin:miter;stroke:rgb(0%,0%,0%);stroke-opacity:1;stroke-miterlimit:10;" d="M 84.777344 151.964844 L 63.914062 155.003906 "/>
<path style="fill:none;stroke-width:1.2;stroke-linecap:butt;stroke-linejoin:miter;stroke:rgb(0%,0%,0%);stroke-opacity:1;stroke-miterlimit:10;" d="M 63.914062 155.003906 L 56.113281 174.59375 "/>
<path style="fill:none;stroke-width:1.2;stroke-linecap:butt;stroke-linejoin:miter;stroke:rgb(0%,0%,0%);stroke-opacity:1;stroke-miterlimit:10;" d="M 56.113281 174.59375 L 35.25 177.632812 "/>
</g>
</svg>

<svg xmlns="http://www.w3.org/2000/svg" xmlns:xlink="http://www.w3.org/1999/xlink" width="300pt" height="300pt" viewBox="0 0 300 300"><defs><symbol overflow="visible"><path d="M.453 1.594v-7.938h4.5v7.938zm.5-.5h3.5v-6.938h-3.5zm0 0"/></symbol><symbol overflow="visible" id="a"><path d="M3.547-5.953c-.65 0-1.164.242-1.547.72-.375.48-.563 1.13-.563 1.952 0 .835.188 1.49.563 1.967.383.48.898.72 1.547.72.644 0 1.156-.24 1.53-.72.376-.476.564-1.132.564-1.968 0-.822-.187-1.474-.562-1.954-.375-.477-.887-.72-1.53-.72zm0-.734c.914 0 1.648.312 2.203.937.55.617.828 1.438.828 2.47 0 1.042-.277 1.87-.828 2.483-.555.617-1.29.922-2.203.922-.93 0-1.668-.305-2.22-.922C.774-1.41.5-2.237.5-3.28c0-1.033.273-1.853.828-2.47.55-.625 1.29-.938 2.22-.938zm0 0"/></symbol><symbol overflow="visible" id="b"><path d="M1.766-5.828v2.47H2.89c.407 0 .723-.11.954-.33.226-.218.344-.52.344-.906 0-.394-.118-.695-.344-.906-.23-.22-.547-.328-.953-.328zM.89-6.562h2c.727 0 1.282.167 1.657.5.383.335.578.824.578 1.468 0 .65-.195 1.137-.578 1.47-.375.323-.93.483-1.656.483H1.767V0H.89zm0 0"/></symbol></defs><g><path fill="#fff" d="M0 0h300v300H0z"/><path d="M245.31 181.852l-16.552 13.062M228.758 194.914l-19.586-7.8M209.172 187.113l-16.55 13.067M192.62 200.18l-19.585-7.8M173.035 192.38l-16.55 13.06M173.035 192.38l-3.04-20.864M156.484 205.44l-19.586-7.8M169.996 171.516l-9.797-3.903" stroke-width="1.2" stroke="#000" stroke-miterlimit="10" fill="none"/><path d="M160.2 167.613l-9.794-3.898M150.406 163.715l-1.52-10.434" stroke-width="1.2" stroke="#f00" stroke-miterlimit="10" fill="none"/><path d="M148.887 153.28l-1.52-10.428" stroke-width="1.2" stroke="#ff7f00" stroke-miterlimit="10" fill="none"/><path d="M146.406 158.215h8v11h-8zm0 0" fill="#fff"/><use xlink:href="#a" x="146.406" y="166.878" fill="#f00"/><path d="M149.824 142.492l-1.52-10.43" stroke-width="1.2" stroke="#ff7f00" stroke-miterlimit="10" fill="none"/><path d="M148.305 132.063l-1.52-10.434" stroke-width="1.2" stroke="#f00" stroke-miterlimit="10" fill="none"/><path d="M144.914 143.207l-1.52-10.43" stroke-width="1.2" stroke="#ff7f00" stroke-miterlimit="10" fill="none"/><path d="M143.395 132.777l-1.52-10.433" stroke-width="1.2" stroke="#f00" stroke-miterlimit="10" fill="none"/><path d="M147.367 142.852l10.434-1.52" stroke-width="1.2" stroke="#ff7f00" stroke-miterlimit="10" fill="none"/><path d="M157.8 141.332l10.43-1.52" stroke-width="1.2" stroke="#f00" stroke-miterlimit="10" fill="none"/><path d="M147.367 142.852l-10.43 1.52" stroke-width="1.2" stroke="#ff7f00" stroke-miterlimit="10" fill="none"/><path d="M136.938 144.37l-10.434 1.52" stroke-width="1.2" stroke="#f00" stroke-miterlimit="10" fill="none"/><path d="M144.367 137.352h6v11h-6zm0 0" fill="#fff"/><use xlink:href="#b" x="144.367" y="146.015" fill="#ff7f00"/><path d="M140.328 116.488h8v11h-8zm0 0" fill="#fff"/><use xlink:href="#a" x="140.328" y="125.151" fill="#f00"/><path d="M168.23 139.813l3.903-9.793" stroke-width="1.2" stroke="#f00" stroke-miterlimit="10" fill="none"/><path d="M172.133 130.02l3.898-9.797" stroke-width="1.2" stroke="#000" stroke-miterlimit="10" fill="none"/><path d="M164.23 134.313h8v11h-8zm0 0" fill="#fff"/><use xlink:href="#a" x="164.23" y="142.976" fill="#f00"/><path d="M176.03 120.223l20.865-3.04M196.895 117.184l7.8-19.586M196.895 117.184l13.066 16.55M204.695 97.598l20.864-3.04M209.96 133.734l20.864-3.04M230.824 130.695l13.063 16.55M243.887 147.246l20.863-3.04" stroke-width="1.2" stroke="#000" stroke-miterlimit="10" fill="none"/><path d="M126.504 145.89l-6.53-8.277" stroke-width="1.2" stroke="#f00" stroke-miterlimit="10" fill="none"/><path d="M119.973 137.613l-6.532-8.273" stroke-width="1.2" stroke="#000" stroke-miterlimit="10" fill="none"/><path d="M122.504 140.39h8v11h-8zm0 0" fill="#fff"/><use xlink:href="#a" x="122.504" y="149.054" fill="#f00"/><path d="M113.44 129.34l-20.862 3.04M92.578 132.38l-13.062-16.552M92.578 132.38l-7.8 19.585M79.516 115.828l-20.864 3.04M84.777 151.965l-20.863 3.04M63.914 155.004l-7.8 19.59M56.113 174.594l-20.863 3.04" stroke-width="1.2" stroke="#000" stroke-miterlimit="10" fill="none"/></g></svg>
